assets/Gem stone/Flat/gem_stone_flat.svg

<svg width="32" height="32" viewBox="0 0 32 32" fill="none" xmlns="http://www.w3.org/2000/svg">
<path d="M24.2101 7.8999H7.79012C7.70882 7.90103 7.62882 7.9205 7.5561 7.95686C7.48337 7.99322 7.4198 8.04554 7.37012 8.1099L2.15012 14.9999C2.07114 15.0937 2.02783 15.2123 2.02783 15.3349C2.02783 15.4575 2.07114 15.5761 2.15012 15.6699L15.5901 29.8999C15.6388 29.952 15.6976 29.9935 15.763 30.0219C15.8283 30.0503 15.8989 30.0649 15.9701 30.0649C16.0414 30.0649 16.1119 30.0503 16.1773 30.0219C16.2426 29.9935 16.3015 29.952 16.3501 29.8999L29.7901 15.6699C29.8691 15.5761 29.9124 15.4575 29.9124 15.3349C29.9124 15.2123 29.8691 15.0937 29.7901 14.9999L24.6301 8.1099C24.5804 8.04554 24.5169 7.99322 24.4441 7.95686C24.3714 7.9205 24.2914 7.90103 24.2101 7.8999Z" fill="#00A6ED"/>
<path d="M15.5939 29.9023C15.7501 30.068 15.9272 30.0781 15.9962 30.0625L16.0126 29.9648V13.9961H2.91028C2.70975 14.2617 2.27824 14.8328 2.15636 14.9922C2.00402 15.1914 1.90246 15.4102 2.15636 15.6797C2.41027 15.9492 15.3986 29.6953 15.5939 29.9023Z" fill="#1C5CD7"/>
<path d="M15.9962 7.8999H7.79011C7.70881 7.90103 7.62881 7.9205 7.55608 7.95686C7.48336 7.99322 7.41979 8.04554 7.37011 8.1099L2.53281 14.4948C2.33116 14.7535 2.1271 15.2069 3.03407 15.2072C6.40343 15.2085 9.18999 15.216 11.1396 15.216C12.1859 13.6504 13.8636 11.1386 15.9962 7.8999Z" fill="#0084CE"/>
<path d="M15.9999 30.0585L11.1399 15.2299H20.8599L15.9999 30.0585Z" fill="#AEDDFF"/>
<path d="M24.0469 7.90015H16.0156V15.1978H29.8994C29.8972 15.1771 29.8741 15.1089 29.7989 15.0015C29.7049 14.8673 24.8164 8.35938 24.6992 8.19531C24.582 8.03125 24.3711 7.90015 24.0469 7.90015Z" fill="#26EAFC"/>
<path d="M15.9999 7.8999L18.4299 11.5699L20.8599 15.2299H11.1399L13.5699 11.5699L15.9999 7.8999Z" fill="#B4F6FC"/>
</svg>

<svg xmlns="http://www.w3.org/2000/svg" width="32" height="32" fill="none"><path fill="#00A6ED" d="M24.21 7.9H7.79a.54.54 0 0 0-.42.21L2.15 15a.52.52 0 0 0 0 .67L15.59 29.9a.52.52 0 0 0 .76 0l13.44-14.23a.52.52 0 0 0 0-.67l-5.16-6.89a.54.54 0 0 0-.42-.21Z"/><path fill="#1C5CD7" d="M15.594 29.902c.156.166.333.176.402.16l.017-.097V13.996H2.91c-.2.266-.632.837-.754.996-.152.2-.254.418 0 .688l13.438 14.222Z"/><path fill="#0084CE" d="M15.996 7.9H7.79a.54.54 0 0 0-.42.21l-4.837 6.385c-.202.259-.406.712.501.712 3.37.002 6.156.009 8.106.009 1.046-1.566 2.724-4.077 4.856-7.316Z"/><path fill="#AEDDFF" d="M16 30.058 11.14 15.23h9.72L16 30.058Z"/><path fill="#26EAFC" d="M24.047 7.9h-8.031v7.298h13.883a.553.553 0 0 0-.1-.197c-.094-.134-4.983-6.642-5.1-6.806-.117-.164-.328-.295-.652-.295Z"/><path fill="#B4F6FC" d="m16 7.9 2.43 3.67 2.43 3.66h-9.72l2.43-3.66L16 7.9Z"/></svg>
